poi/svg/1818.svg

<?xml version="1.0" encoding="UTF-8" standalone="no"?>
<svg
   xmlns:dc="http://purl.org/dc/elements/1.1/"
   xmlns:cc="http://creativecommons.org/ns#"
   xmlns:rdf="http://www.w3.org/1999/02/22-rdf-syntax-ns#"
   xmlns:svg="http://www.w3.org/2000/svg"
   xmlns="http://www.w3.org/2000/svg"
   xmlns:sodipodi="http://sodipodi.sourceforge.net/DTD/sodipodi-0.dtd"
   xmlns:inkscape="http://www.inkscape.org/namespaces/inkscape"
   inkscape:version="1.0 (4035a4fb49, 2020-05-01)"
   sodipodi:docname="1818.svg"
   id="svg20"
   version="1.2"
   viewBox="0 0 42.519639 42.519639"
   height="14.999999mm"
   width="14.999999mm">
  <metadata
     id="metadata24">
    <rdf:RDF>
      <cc:Work
         rdf:about="">
        <dc:format>image/svg+xml</dc:format>
        <dc:type
           rdf:resource="http://purl.org/dc/dcmitype/StillImage" />
        <dc:title>Qt SVG Document</dc:title>
      </cc:Work>
    </rdf:RDF>
  </metadata>
  <sodipodi:namedview
     inkscape:current-layer="svg20"
     inkscape:window-maximized="0"
     inkscape:window-y="0"
     inkscape:window-x="0"
     inkscape:cy="28.346482"
     inkscape:cx="28.346482"
     inkscape:zoom="5.8410537"
     showgrid="false"
     id="namedview22"
     inkscape:window-height="480"
     inkscape:window-width="1034"
     inkscape:pageshadow="2"
     inkscape:pageopacity="0"
     guidetolerance="10"
     gridtolerance="10"
     objecttolerance="10"
     borderopacity="1"
     bordercolor="#666666"
     pagecolor="#ffffff" />
  <title
     id="title2">Qt SVG Document</title>
  <desc
     id="desc4">Generated with Qt</desc>
  <defs
     id="defs6" />
  <g
     transform="translate(5.25984,5.25984)"
     id="g18"
     stroke-linejoin="bevel"
     stroke-linecap="square"
     fill-rule="evenodd"
     stroke-width="1"
     stroke="#000000"
     fill="none">
    <g
       id="g10"
       font-style="normal"
       font-weight="400"
       font-size="7.8px"
       font-family="'MS Shell Dlg 2'"
       stroke="none"
       fill-opacity="1"
       fill="#a61215">
      <path
         id="path8"
         d="M 37.2598,16 C 37.2598,27.7415 27.7415,37.2598 16,37.2598 4.25851,37.2598 -5.25984,27.7415 -5.25984,16 -5.25984,4.25851 4.25851,-5.25984 16,-5.25984 27.7415,-5.25984 37.2598,4.25851 37.2598,16"
         fill-rule="evenodd"
         vector-effect="non-scaling-stroke" />
    </g>
    <g
       id="g14"
       font-style="normal"
       font-weight="400"
       font-size="7.8px"
       font-family="'MS Shell Dlg 2'"
       transform="translate(16,12.0315)"
       stroke="none"
       fill-opacity="0.94902"
       fill="#ffffff">
      <path
         id="path12"
         d="M 10.2793,6.46143 H 7.44482 L 5.89111,7.6792 6.08008,14.041 10.0273,15.6367 v 1.3648 H -8.68018 v -1.7217 l 2.96045,-1.8057 0.39893,-6.57176 -4.13623,-0.44091 -0.77687,-6.046879 1.25978,-3.107421 4.19922,0.12598 0.23095,-3.48536 2.62452,-2.70849 6.08886,0.56689 1.30176,0.94483 0.12598,5.08105 2.79248,0.08399 1.88965,2.1415972 V 6.46143 M 9.37646,16.2666 6.24805,15.0278 v 0.6509 l 2.54052,0.9868 H 9.37646 V 16.2666 M 8.0957,-1.22314 5.76514,-1.30713 5.80713,-0.404297 8.87256,-0.27832 8.0957,-1.22314 m -16.33496,7.4746 -0.60888,-4.55615 1.0708,-2.624509 4.38818,0.167969 0.20996,-3.86328 2.288575,-2.33057 5.626955,0.5249 0.12597,0.12598 v -0.37793 l -0.90283,-0.65088 -5.66894,-0.5249 -2.28858,2.33057 -0.20996,3.86328 -4.34619,-0.16797 -1.0708,2.582518 0.69287,5.416992 0.69287,0.08398 m 3.90528,8.77634 0.41992,-7.47458 -0.81885,-0.08398 -0.37793,6.65576 -2.96045,1.7637 v 0.7768 h 1.02881 l 2.7085,-1.6377 M 6.58398,1.86328 7.61279,2.38818 7.40283,3.20703 7.10889,4.27783 H 1.90186 L 1.73389,13.1802 H 2.59473 L 2.7207,5.13867 H 7.69678 L 8.22168,3.45898 8.6416,1.90527 6.75195,1.00244 2.88867,1.27539 2.97266,-2.5249 3.74951,-3.51172 3.05664,-4.91846 0.705078,-5.40137 -0.806641,-4.41455 -1.83545,-3.23877 -1.10059,1.08643 -4.66992,0.918457 -5.8457,-0.0263672 -7.29443,2.34619 -6.62256,5.13867 h 5.56397 l -1.34375,9.84713 0.44091,0.042 0.042,0.42 4.76611,-0.21 0.46191,1.1128 0.77686,-0.336 L 3.41357,14.377 -1.45752,14.6079 -0.11377,4.27783 H -5.92969 L -6.3916,2.47217 -5.63574,1.2334 -5.02686,1.7793 -0.0717773,1.98926 -0.932617,-2.98682 -0.302734,-3.76367 0.873047,-4.49854 2.44775,-4.1416 2.7627,-3.5957 2.15381,-2.81885 2.02783,2.17822 6.58398,1.86328"
         fill-rule="evenodd"
         vector-effect="none" />
    </g>
    <g
       id="g16"
       font-style="normal"
       font-weight="400"
       font-size="7.8px"
       font-family="'MS Shell Dlg 2'"
       stroke="none"
       fill-opacity="1"
       fill="#a61215" />
  </g>
</svg>

<?xml version="1.0" encoding="UTF-8" standalone="no"?>
<svg width="11.2889mm" height="11.2889mm"
 viewBox="0 0 32 32"
 xmlns="http://www.w3.org/2000/svg" xmlns:xlink="http://www.w3.org/1999/xlink"  version="1.2" baseProfile="tiny">
<title>Qt SVG Document</title>
<desc>Generated with Qt</desc>
<defs>
</defs>
<g fill="none" stroke="black" stroke-width="1" fill-rule="evenodd" stroke-linecap="square" stroke-linejoin="bevel" >

<g fill="#a61215" fill-opacity="1" stroke="none" transform="matrix(1,0,0,1,0,0)"
font-family="MS Shell Dlg 2" font-size="7.8" font-weight="400" font-style="normal" 
>
<path vector-effect="non-scaling-stroke" fill-rule="evenodd" d="M37.2598,16 C37.2598,27.7415 27.7415,37.2598 16,37.2598 C4.25851,37.2598 -5.25984,27.7415 -5.25984,16 C-5.25984,4.25851 4.25851,-5.25984 16,-5.25984 C27.7415,-5.25984 37.2598,4.25851 37.2598,16 "/>
</g>

<g fill="#ffffff" fill-opacity="0.94902" stroke="none" transform="matrix(1,0,0,1,16,12.0315)"
font-family="MS Shell Dlg 2" font-size="7.8" font-weight="400" font-style="normal" 
>
<path vector-effect="none" fill-rule="evenodd" d="M10.2793,6.46143 L7.44482,6.46143 L5.89111,7.6792 L6.08008,14.041 L10.0273,15.6367 L10.0273,17.0015 L-8.68018,17.0015 L-8.68018,15.2798 L-5.71973,13.4741 L-5.3208,6.90234 L-9.45703,6.46143 L-10.2339,0.414551 L-8.97412,-2.69287 L-4.7749,-2.56689 L-4.54395,-6.05225 L-1.91943,-8.76074 L4.16943,-8.19385 L5.47119,-7.24902 L5.59717,-2.16797 L8.38965,-2.08398 L10.2793,0.0576172 L10.2793,6.46143 M9.37646,16.2666 L6.24805,15.0278 L6.24805,15.6787 L8.78857,16.6655 L9.37646,16.6655 L9.37646,16.2666 M8.0957,-1.22314 L5.76514,-1.30713 L5.80713,-0.404297 L8.87256,-0.27832 L8.0957,-1.22314 M-8.23926,6.25146 L-8.84814,1.69531 L-7.77734,-0.929199 L-3.38916,-0.76123 L-3.1792,-4.62451 L-0.890625,-6.95508 L4.73633,-6.43018 L4.8623,-6.3042 L4.8623,-6.68213 L3.95947,-7.33301 L-1.70947,-7.85791 L-3.99805,-5.52734 L-4.20801,-1.66406 L-8.5542,-1.83203 L-9.625,0.750488 L-8.93213,6.16748 L-8.23926,6.25146 M-4.33398,15.0278 L-3.91406,7.55322 L-4.73291,7.46924 L-5.11084,14.125 L-8.07129,15.8887 L-8.07129,16.6655 L-7.04248,16.6655 L-4.33398,15.0278 M6.58398,1.86328 L7.61279,2.38818 L7.40283,3.20703 L7.10889,4.27783 L1.90186,4.27783 L1.73389,13.1802 L2.59473,13.1802 L2.7207,5.13867 L7.69678,5.13867 L8.22168,3.45898 L8.6416,1.90527 L6.75195,1.00244 L2.88867,1.27539 L2.97266,-2.5249 L3.74951,-3.51172 L3.05664,-4.91846 L0.705078,-5.40137 L-0.806641,-4.41455 L-1.83545,-3.23877 L-1.10059,1.08643 L-4.66992,0.918457 L-5.8457,-0.0263672 L-7.29443,2.34619 L-6.62256,5.13867 L-1.05859,5.13867 L-2.40234,14.9858 L-1.96143,15.0278 L-1.91943,15.4478 L2.84668,15.2378 L3.30859,16.3506 L4.08545,16.0146 L3.41357,14.377 L-1.45752,14.6079 L-0.11377,4.27783 L-5.92969,4.27783 L-6.3916,2.47217 L-5.63574,1.2334 L-5.02686,1.7793 L-0.0717773,1.98926 L-0.932617,-2.98682 L-0.302734,-3.76367 L0.873047,-4.49854 L2.44775,-4.1416 L2.7627,-3.5957 L2.15381,-2.81885 L2.02783,2.17822 L6.58398,1.86328"/>
</g>

<g fill="#a61215" fill-opacity="1" stroke="none" transform="matrix(1,0,0,1,0,0)"
font-family="MS Shell Dlg 2" font-size="7.8" font-weight="400" font-style="normal" 
>
</g>
</g>
</svg>
